public/assets/icons/logo-full-brand.svg

<svg width="143" height="52" viewBox="0 0 143 52" fill="none" xmlns="http://www.w3.org/2000/svg">
<path d="M72.296 34.168C71.176 34.168 70.168 33.976 69.272 33.592C68.376 33.192 67.672 32.632 67.16 31.912C66.648 31.192 66.392 30.352 66.392 29.392H69.32C69.384 30.112 69.664 30.704 70.16 31.168C70.672 31.632 71.384 31.864 72.296 31.864C73.24 31.864 73.976 31.64 74.504 31.192C75.032 30.728 75.296 30.136 75.296 29.416C75.296 28.856 75.128 28.4 74.792 28.048C74.472 27.696 74.064 27.424 73.568 27.232C73.088 27.04 72.416 26.832 71.552 26.608C70.464 26.32 69.576 26.032 68.888 25.744C68.216 25.44 67.64 24.976 67.16 24.352C66.68 23.728 66.44 22.896 66.44 21.856C66.44 20.896 66.68 20.056 67.16 19.336C67.64 18.616 68.312 18.064 69.176 17.68C70.04 17.296 71.04 17.104 72.176 17.104C73.792 17.104 75.112 17.512 76.136 18.328C77.176 19.128 77.752 20.232 77.864 21.64H74.84C74.792 21.032 74.504 20.512 73.976 20.08C73.448 19.648 72.752 19.432 71.888 19.432C71.104 19.432 70.464 19.632 69.968 20.032C69.472 20.432 69.224 21.008 69.224 21.76C69.224 22.272 69.376 22.696 69.68 23.032C70 23.352 70.4 23.608 70.88 23.8C71.36 23.992 72.016 24.2 72.848 24.424C73.952 24.728 74.848 25.032 75.536 25.336C76.24 25.64 76.832 26.112 77.312 26.752C77.808 27.376 78.056 28.216 78.056 29.272C78.056 30.12 77.824 30.92 77.36 31.672C76.912 32.424 76.248 33.032 75.368 33.496C74.504 33.944 73.48 34.168 72.296 34.168ZM84.4764 23.008V30.328C84.4764 30.824 84.5884 31.184 84.8124 31.408C85.0524 31.616 85.4524 31.72 86.0124 31.72H87.6924V34H85.5324C84.3004 34 83.3564 33.712 82.7004 33.136C82.0444 32.56 81.7164 31.624 81.7164 30.328V23.008H80.1564V20.776H81.7164V17.488H84.4764V20.776H87.6924V23.008H84.4764ZM95.9501 34.216C94.7021 34.216 93.5741 33.936 92.5661 33.376C91.5581 32.8 90.7661 32 90.1901 30.976C89.6141 29.936 89.3261 28.736 89.3261 27.376C89.3261 26.032 89.6221 24.84 90.2141 23.8C90.8061 22.76 91.6141 21.96 92.6381 21.4C93.6621 20.84 94.8061 20.56 96.0701 20.56C97.3341 20.56 98.4781 20.84 99.5021 21.4C100.526 21.96 101.334 22.76 101.926 23.8C102.518 24.84 102.814 26.032 102.814 27.376C102.814 28.72 102.51 29.912 101.902 30.952C101.294 31.992 100.462 32.8 99.4061 33.376C98.3661 33.936 97.2141 34.216 95.9501 34.216ZM95.9501 31.84C96.6541 31.84 97.3101 31.672 97.9181 31.336C98.5421 31 99.0461 30.496 99.4301 29.824C99.8141 29.152 100.006 28.336 100.006 27.376C100.006 26.416 99.8221 25.608 99.4541 24.952C99.0861 24.28 98.5981 23.776 97.9901 23.44C97.3821 23.104 96.7261 22.936 96.0221 22.936C95.3181 22.936 94.6621 23.104 94.0541 23.44C93.4621 23.776 92.9901 24.28 92.6381 24.952C92.2861 25.608 92.1101 26.416 92.1101 27.376C92.1101 28.8 92.4701 29.904 93.1901 30.688C93.9261 31.456 94.8461 31.84 95.9501 31.84ZM108.255 22.696C108.655 22.024 109.183 21.504 109.839 21.136C110.511 20.752 111.303 20.56 112.215 20.56V23.392H111.519C110.447 23.392 109.631 23.664 109.071 24.208C108.527 24.752 108.255 25.696 108.255 27.04V34H105.519V20.776H108.255V22.696ZM126.85 27.064C126.85 27.56 126.818 28.008 126.754 28.408H116.65C116.73 29.464 117.122 30.312 117.826 30.952C118.53 31.592 119.394 31.912 120.418 31.912C121.89 31.912 122.93 31.296 123.538 30.064H126.49C126.09 31.28 125.362 32.28 124.306 33.064C123.266 33.832 121.97 34.216 120.418 34.216C119.154 34.216 118.018 33.936 117.01 33.376C116.018 32.8 115.234 32 114.658 30.976C114.098 29.936 113.818 28.736 113.818 27.376C113.818 26.016 114.09 24.824 114.634 23.8C115.194 22.76 115.97 21.96 116.962 21.4C117.97 20.84 119.122 20.56 120.418 20.56C121.666 20.56 122.778 20.832 123.754 21.376C124.73 21.92 125.49 22.688 126.034 23.68C126.578 24.656 126.85 25.784 126.85 27.064ZM123.994 26.2C123.978 25.192 123.618 24.384 122.914 23.776C122.21 23.168 121.338 22.864 120.298 22.864C119.354 22.864 118.546 23.168 117.874 23.776C117.202 24.368 116.802 25.176 116.674 26.2H123.994ZM132.278 17.32V34H129.542V17.32H132.278ZM139.062 23.008V30.328C139.062 30.824 139.174 31.184 139.398 31.408C139.638 31.616 140.038 31.72 140.598 31.72H142.278V34H140.118C138.886 34 137.942 33.712 137.286 33.136C136.63 32.56 136.302 31.624 136.302 30.328V23.008H134.742V20.776H136.302V17.488H139.062V20.776H142.278V23.008H139.062Z" fill="#FA7275"/>
<rect opacity="0.2" width="48" height="48" rx="24" fill="#FA7275"/>
<rect x="21" y="20" width="32" height="32" rx="16" fill="#FA7275"/>
</svg>

<svg xmlns="http://www.w3.org/2000/svg" width="143" height="52" fill="none"><path fill="#FA7275" d="M72.296 34.168q-1.68 0-3.024-.576-1.344-.6-2.112-1.68t-.768-2.52h2.928q.096 1.08.84 1.776.768.696 2.136.696 1.416 0 2.208-.672.792-.696.792-1.776 0-.84-.504-1.368a3.2 3.2 0 0 0-1.224-.816q-.72-.288-2.016-.624-1.632-.432-2.664-.864a4.5 4.5 0 0 1-1.728-1.392q-.72-.936-.72-2.496 0-1.44.72-2.52t2.016-1.656 3-.576q2.424 0 3.96 1.224 1.56 1.2 1.728 3.312H74.84q-.072-.912-.864-1.56t-2.088-.648q-1.176 0-1.92.6t-.744 1.728q0 .768.456 1.272.48.48 1.2.768t1.968.624q1.656.456 2.688.912a4.35 4.35 0 0 1 1.776 1.416q.744.936.744 2.52 0 1.272-.696 2.4-.672 1.128-1.992 1.824-1.296.672-3.072.672m12.18-11.16v7.32q0 .744.336 1.08.36.312 1.2.312h1.68V34h-2.16q-1.848 0-2.832-.864t-.984-2.808v-7.32h-1.56v-2.232h1.56v-3.288h2.76v3.288h3.216v2.232zM95.95 34.216q-1.872 0-3.384-.84a6.23 6.23 0 0 1-2.376-2.4q-.864-1.56-.864-3.6 0-2.016.888-3.576a6.13 6.13 0 0 1 2.424-2.4q1.536-.84 3.432-.84t3.432.84a6.13 6.13 0 0 1 2.424 2.4q.888 1.56.888 3.576t-.912 3.576a6.4 6.4 0 0 1-2.496 2.424q-1.56.84-3.456.84m0-2.376q1.056 0 1.968-.504.936-.504 1.512-1.512t.576-2.448-.552-2.424q-.552-1.008-1.464-1.512a4 4 0 0 0-1.968-.504q-1.056 0-1.968.504-.888.504-1.416 1.512-.528.984-.528 2.424 0 2.136 1.08 3.312 1.104 1.152 2.76 1.152m12.305-9.144q.6-1.008 1.584-1.56 1.008-.576 2.376-.576v2.832h-.696q-1.608 0-2.448.816-.816.816-.816 2.832V34h-2.736V20.776h2.736zm18.595 4.368q0 .744-.096 1.344H116.65q.12 1.584 1.176 2.544t2.592.96q2.208 0 3.12-1.848h2.952q-.6 1.824-2.184 3-1.56 1.152-3.888 1.152-1.896 0-3.408-.84a6.3 6.3 0 0 1-2.352-2.4q-.84-1.56-.84-3.6t.816-3.576q.84-1.56 2.328-2.4 1.512-.84 3.456-.84 1.872 0 3.336.816a5.75 5.75 0 0 1 2.28 2.304q.816 1.464.816 3.384m-2.856-.864q-.024-1.512-1.08-2.424t-2.616-.912q-1.416 0-2.424.912-1.008.888-1.2 2.424zm8.284-8.88V34h-2.736V17.32zm6.784 5.688v7.32q0 .744.336 1.08.36.312 1.2.312h1.68V34h-2.16q-1.848 0-2.832-.864t-.984-2.808v-7.32h-1.56v-2.232h1.56v-3.288h2.76v3.288h3.216v2.232z"/><rect width="48" height="48" fill="#FA7275" opacity=".2" rx="24"/><rect width="32" height="32" x="21" y="20" fill="#FA7275" rx="16"/></svg>
